NoxiumFront/NoxiumFront/Assets.xcassets/Profile/settings.imageset/settings.svg

<svg fill="none" height="80" viewBox="0 0 80 80" width="80" xmlns="http://www.w3.org/2000/svg" xmlns:xlink="http://www.w3.org/1999/xlink"><filter id="a" color-interpolation-filters="sRGB" filterUnits="userSpaceOnUse" height="80" width="80" x="0" y="0"><feFlood flood-opacity="0" result="BackgroundImageFix"/><feColorMatrix in="SourceAlpha" result="hardAlpha" type="matrix" values="0 0 0 0 0 0 0 0 0 0 0 0 0 0 0 0 0 0 127 0"/><feOffset dx="2" dy="2"/><feGaussianBlur stdDeviation="7.5"/><feComposite in2="hardAlpha" operator="out"/><feColorMatrix type="matrix" values="0 0 0 0 0 0 0 0 0 0 0 0 0 0 0 0 0 0 0.25 0"/><feBlend in2="BackgroundImageFix" mode="normal" result="effect1_dropShadow_1025_8040"/><feBlend in="SourceGraphic" in2="effect1_dropShadow_1025_8040" mode="normal" result="shape"/></filter><g filter="url(#a)"><rect fill="#fd85b3" height="50" rx="25" width="50" x="13" y="13"/><path d="m38 53.625c-.3438 0-.6875-.0156-1.0312-.0469l-.8438 1.5625c-.2656.4844-.6875.7188-1.2188.625-.5156-.1094-.875-.4687-.9374-1l-.25-1.75c-.6719-.1875-1.3282-.4218-1.9376-.7031l-1.3281 1.1719c-.4062.3594-.8906.4375-1.3593.1562-.4532-.2656-.6563-.7187-.5469-1.2656l.3593-1.7188c-.5468-.4062-1.0781-.8437-1.5781-1.3437l-1.6406.6719c-.5.1875-.9844.0937-1.3437-.3125-.3126-.4063-.375-.9219-.0782-1.3907l.9375-1.4843c-.375-.5625-.7187-1.1719-1.0312-1.7813l-1.7657.0313c-.5468.0156-.9531-.2188-1.1406-.7344-.1718-.5-.0468-.9844.3906-1.3281l1.3907-1.0782c-.1719-.6562-.2813-1.3437-.3594-2.0468l-1.6875-.5469c-.5156-.1563-.8125-.5625-.8125-1.0937 0-.5313.2969-.9376.8125-1.1094l1.6875-.5313c.0781-.7031.1875-1.3906.3594-2.0469l-1.3907-1.0937c-.4374-.3281-.5781-.8125-.3906-1.3125.1719-.5.5938-.7812 1.1406-.7656l1.7657.0781c.3125-.625.6562-1.2187 1.0312-1.7969l-.9375-1.5c-.2812-.4687-.2656-.9687.0938-1.375.3437-.3906.8281-.5312 1.3281-.3281l1.6406.6719c.5-.4844 1.0157-.9219 1.5938-1.3282l-.375-1.7343c-.0938-.5313.0781-1 .5469-1.25.4531-.2657.9687-.2188 1.3593.1406l1.3125 1.1875c.625-.2656 1.2656-.5156 1.9532-.7031l.25-1.75c.0781-.5313.4062-.9219.9374-1 .5157-.0781.9688.125 1.2344.6093l.8282 1.5782c.3437-.0313.6874-.0469 1.0312-.0469s.6875.0156 1.0312.0469l.8438-1.5782c.25-.4687.6875-.7031 1.2188-.6093.5156.1093.875.4687.9374 1l.25 1.75c.6719.1875 1.3282.4219 1.9376.7031l1.3281-1.1719c.4062-.3593.8906-.4375 1.3593-.1562.4532.2656.6563.7187.5469 1.2656l-.375 1.7031c.5625.4063 1.0938.8594 1.5938 1.3438l1.6406-.6563c.5-.2031.9844-.1093 1.3281.3125.3282.4063.3906.9219.0938 1.375l-.9375 1.4844c.375.5781.7187 1.1719 1.0312 1.7969l1.75-.0469c.5469 0 .9688.2344 1.1563.75.1718.5.0468.9844-.3906 1.3281l-1.3907 1.0781c.1719.6563.2813 1.3438.3594 2.0469l1.6875.5313c.5156.1718.8125.5781.8125 1.1094 0 .5312-.2969.9374-.8125 1.0937l-1.6875.5469c-.0781.7031-.1875 1.3906-.3594 2.0468l1.3907 1.0938c.4374.3281.5781.8125.3906 1.2969-.1875.5-.6094.7812-1.1406.7656l-1.7657-.0625c-.3125.625-.6562 1.2188-1.0312 1.7969l.9219 1.5c.2968.4687.2812.9687-.0782 1.3593-.3437.4063-.8281.5469-1.3281.3282l-1.6406-.6563c-.5.4688-1.0313.9219-1.5938 1.3281l.3594 1.7344c.1094.5313-.0625.9844-.5313 1.25-.4687.25-.9687.2188-1.375-.1562l-1.2968-1.1719c-.625.2656-1.2656.5156-1.9532.7031l-.2656 1.75c-.0781.5313-.3906.9063-.9218 1-.5313.0782-.9688-.1406-1.2344-.625l-.8282-1.5625c-.3437.0313-.6874.0469-1.0312.0469zm0-19.9688c2.0156 0 3.7188 1.2969 4.3281 3.1094h7.6407c-.7188-5.9687-5.7969-10.6094-11.9688-10.6094-1.7188 0-3.3594.3594-4.8438 1.0157l3.8438 6.5937c.3281-.0625.6562-.1094 1-.1094zm-12.0625 4.5626c0 3.875 1.8281 7.3124 4.6563 9.5156l3.9843-6.5156c-.7031-.7969-1.125-1.8594-1.125-3 0-1.1563.4219-2.2032 1.1094-3l-3.8594-6.6094c-2.8906 2.2031-4.7656 5.6875-4.7656 9.6094zm12.0625 1.7812c.9844 0 1.7812-.7969 1.7812-1.7812 0-.9844-.7968-1.7813-1.7812-1.7813s-1.7812.7969-1.7812 1.7813c0 .9843.7968 1.7812 1.7812 1.7812zm0 10.2812c6.1875 0 11.2812-4.6562 11.9688-10.6718h-7.625c-.5938 1.8437-2.3126 3.1718-4.3438 3.1718-.3438 0-.6719-.0468-1-.125l-3.9688 6.5469c1.5157.6875 3.1876 1.0781 4.9688 1.0781z" fill="#fff"/></g></svg>

<svg width="80" height="80" viewBox="0 0 80 80" fill="none" xmlns="http://www.w3.org/2000/svg">
<g filter="url(#filter0_d_1025_8040)">
<rect x="13" y="13" width="50" height="50" rx="25" fill="#FD85B3"/>
<path d="M38 53.625C37.6562 53.625 37.3125 53.6094 36.9688 53.5781L36.125 55.1406C35.8594 55.625 35.4375 55.8594 34.9062 55.7656C34.3906 55.6562 34.0312 55.2969 33.9688 54.7656L33.7188 53.0156C33.0469 52.8281 32.3906 52.5938 31.7812 52.3125L30.4531 53.4844C30.0469 53.8438 29.5625 53.9219 29.0938 53.6406C28.6406 53.375 28.4375 52.9219 28.5469 52.375L28.9062 50.6562C28.3594 50.25 27.8281 49.8125 27.3281 49.3125L25.6875 49.9844C25.1875 50.1719 24.7031 50.0781 24.3438 49.6719C24.0312 49.2656 23.9688 48.75 24.2656 48.2812L25.2031 46.7969C24.8281 46.2344 24.4844 45.625 24.1719 45.0156L22.4062 45.0469C21.8594 45.0625 21.4531 44.8281 21.2656 44.3125C21.0938 43.8125 21.2188 43.3281 21.6562 42.9844L23.0469 41.9062C22.875 41.25 22.7656 40.5625 22.6875 39.8594L21 39.3125C20.4844 39.1562 20.1875 38.75 20.1875 38.2188C20.1875 37.6875 20.4844 37.2812 21 37.1094L22.6875 36.5781C22.7656 35.875 22.875 35.1875 23.0469 34.5312L21.6562 33.4375C21.2188 33.1094 21.0781 32.625 21.2656 32.125C21.4375 31.625 21.8594 31.3438 22.4062 31.3594L24.1719 31.4375C24.4844 30.8125 24.8281 30.2188 25.2031 29.6406L24.2656 28.1406C23.9844 27.6719 24 27.1719 24.3594 26.7656C24.7031 26.375 25.1875 26.2344 25.6875 26.4375L27.3281 27.1094C27.8281 26.625 28.3438 26.1875 28.9219 25.7812L28.5469 24.0469C28.4531 23.5156 28.625 23.0469 29.0938 22.7969C29.5469 22.5312 30.0625 22.5781 30.4531 22.9375L31.7656 24.125C32.3906 23.8594 33.0312 23.6094 33.7188 23.4219L33.9688 21.6719C34.0469 21.1406 34.375 20.75 34.9062 20.6719C35.4219 20.5938 35.875 20.7969 36.1406 21.2812L36.9688 22.8594C37.3125 22.8281 37.6562 22.8125 38 22.8125C38.3438 22.8125 38.6875 22.8281 39.0312 22.8594L39.875 21.2812C40.125 20.8125 40.5625 20.5781 41.0938 20.6719C41.6094 20.7812 41.9688 21.1406 42.0312 21.6719L42.2812 23.4219C42.9531 23.6094 43.6094 23.8438 44.2188 24.125L45.5469 22.9531C45.9531 22.5938 46.4375 22.5156 46.9062 22.7969C47.3594 23.0625 47.5625 23.5156 47.4531 24.0625L47.0781 25.7656C47.6406 26.1719 48.1719 26.625 48.6719 27.1094L50.3125 26.4531C50.8125 26.25 51.2969 26.3438 51.6406 26.7656C51.9688 27.1719 52.0312 27.6875 51.7344 28.1406L50.7969 29.625C51.1719 30.2031 51.5156 30.7969 51.8281 31.4219L53.5781 31.375C54.125 31.375 54.5469 31.6094 54.7344 32.125C54.9062 32.625 54.7812 33.1094 54.3438 33.4531L52.9531 34.5312C53.125 35.1875 53.2344 35.875 53.3125 36.5781L55 37.1094C55.5156 37.2812 55.8125 37.6875 55.8125 38.2188C55.8125 38.75 55.5156 39.1562 55 39.3125L53.3125 39.8594C53.2344 40.5625 53.125 41.25 52.9531 41.9062L54.3438 43C54.7812 43.3281 54.9219 43.8125 54.7344 44.2969C54.5469 44.7969 54.125 45.0781 53.5938 45.0625L51.8281 45C51.5156 45.625 51.1719 46.2188 50.7969 46.7969L51.7188 48.2969C52.0156 48.7656 52 49.2656 51.6406 49.6562C51.2969 50.0625 50.8125 50.2031 50.3125 49.9844L48.6719 49.3281C48.1719 49.7969 47.6406 50.25 47.0781 50.6562L47.4375 52.3906C47.5469 52.9219 47.375 53.375 46.9062 53.6406C46.4375 53.8906 45.9375 53.8594 45.5312 53.4844L44.2344 52.3125C43.6094 52.5781 42.9688 52.8281 42.2812 53.0156L42.0156 54.7656C41.9375 55.2969 41.625 55.6719 41.0938 55.7656C40.5625 55.8438 40.125 55.625 39.8594 55.1406L39.0312 53.5781C38.6875 53.6094 38.3438 53.625 38 53.625ZM38 33.6562C40.0156 33.6562 41.7188 34.9531 42.3281 36.7656H49.9688C49.25 30.7969 44.1719 26.1562 38 26.1562C36.2812 26.1562 34.6406 26.5156 33.1562 27.1719L37 33.7656C37.3281 33.7031 37.6562 33.6562 38 33.6562ZM25.9375 38.2188C25.9375 42.0938 27.7656 45.5312 30.5938 47.7344L34.5781 41.2188C33.875 40.4219 33.4531 39.3594 33.4531 38.2188C33.4531 37.0625 33.875 36.0156 34.5625 35.2188L30.7031 28.6094C27.8125 30.8125 25.9375 34.2969 25.9375 38.2188ZM38 40C38.9844 40 39.7812 39.2031 39.7812 38.2188C39.7812 37.2344 38.9844 36.4375 38 36.4375C37.0156 36.4375 36.2188 37.2344 36.2188 38.2188C36.2188 39.2031 37.0156 40 38 40ZM38 50.2812C44.1875 50.2812 49.2812 45.625 49.9688 39.6094H42.3438C41.75 41.4531 40.0312 42.7812 38 42.7812C37.6562 42.7812 37.3281 42.7344 37 42.6562L33.0312 49.2031C34.5469 49.8906 36.2188 50.2812 38 50.2812Z" fill="white"/>
</g>
<defs>
<filter id="filter0_d_1025_8040" x="0" y="0" width="80" height="80" filterUnits="userSpaceOnUse" color-interpolation-filters="sRGB">
<feFlood flood-opacity="0" result="BackgroundImageFix"/>
<feColorMatrix in="SourceAlpha" type="matrix" values="0 0 0 0 0 0 0 0 0 0 0 0 0 0 0 0 0 0 127 0" result="hardAlpha"/>
<feOffset dx="2" dy="2"/>
<feGaussianBlur stdDeviation="7.5"/>
<feComposite in2="hardAlpha" operator="out"/>
<feColorMatrix type="matrix" values="0 0 0 0 0 0 0 0 0 0 0 0 0 0 0 0 0 0 0.25 0"/>
<feBlend mode="normal" in2="BackgroundImageFix" result="effect1_dropShadow_1025_8040"/>
<feBlend mode="normal" in="SourceGraphic" in2="effect1_dropShadow_1025_8040" result="shape"/>
</filter>
</defs>
</svg>
